X: 3
T: The Tailor's Twist
R: hornpipe
M: 4/4
L: 1/8
K: Dmaj
|:FE|DA FD AF dA|Bg ed ce ag|fe dc BG ed|cA Bc AG{FA}FD|
DA FD AD dA|Bg ed ce ag|fe dc BG ec|df ec d2:|
|:fg|~abaf de fg|ba {a}gf eA ce|{f}~gf gd cd ef|ga fg eg fe|
d2 (3gfe dD FA|Bg ed ce ag|fe dc BG ec|d/c/d ec d2:|


Tune 996	Setting 21761

